assets/icons/smartphone-filled.svg

<?xml version="1.0" encoding="UTF-8" standalone="no"?>
<svg
   viewBox="0 0 24 24"
   height="24"
   width="24"
   version="1.1"
   id="svg4"
   sodipodi:docname="smartphone-filled.svg"
   inkscape:version="1.2 (1:1.2.1+202207142221+cd75a1ee6d)"
   xmlns:inkscape="http://www.inkscape.org/namespaces/inkscape"
   xmlns:sodipodi="http://sodipodi.sourceforge.net/DTD/sodipodi-0.dtd"
   xmlns="http://www.w3.org/2000/svg"
   xmlns:svg="http://www.w3.org/2000/svg">
  <defs
     id="defs8" />
  <sodipodi:namedview
     id="namedview6"
     pagecolor="#ffffff"
     bordercolor="#666666"
     borderopacity="1.0"
     inkscape:pageshadow="2"
     inkscape:pageopacity="0.0"
     inkscape:pagecheckerboard="0"
     showgrid="true"
     inkscape:zoom="32"
     inkscape:cx="9.625"
     inkscape:cy="11.96875"
     inkscape:window-width="1920"
     inkscape:window-height="1043"
     inkscape:window-x="0"
     inkscape:window-y="0"
     inkscape:window-maximized="1"
     inkscape:current-layer="svg4"
     inkscape:showpageshadow="2"
     inkscape:deskcolor="#d1d1d1">
    <inkscape:grid
       type="xygrid"
       id="grid6" />
    <inkscape:grid
       type="xygrid"
       id="grid823"
       dotted="true"
       spacingx="0.5"
       spacingy="0.5"
       empspacing="10" />
  </sodipodi:namedview>
  <path
     id="path294"
     style="color:#000000;fill:#808080;fill-opacity:1"
     d="M 8.7871094 2 C 8.110165 2.00559 7.5365062 2.0481534 7.0273438 2.3027344 C 6.6879021 2.4724552 6.3973381 2.7651688 6.2304688 3.140625 C 6.0635992 3.5160812 6 3.9583349 6 4.5 L 6 19.5 C 6 20.041664 6.0635992 20.483918 6.2304688 20.859375 C 6.3973381 21.234832 6.6879021 21.527544 7.0273438 21.697266 C 7.7062271 22.036706 8.500003 22 9.5 22 L 14.5 22 C 15.499997 22 16.293773 22.036708 16.972656 21.697266 C 17.312099 21.527544 17.602661 21.234832 17.769531 20.859375 C 17.936401 20.483918 18 20.041664 18 19.5 L 18 4.5 C 18 3.9583349 17.9364 3.5160812 17.769531 3.140625 C 17.602661 2.7651688 17.312099 2.4724552 16.972656 2.3027344 C 16.293773 1.9632926 15.499997 2 14.5 2 L 9.5 2 C 9.2500006 2 9.0127574 1.99814 8.7871094 2 z M 7 5 L 17 5 L 17 19 L 7 19 L 7 5 z M 8 6 L 8 18 L 16 18 L 16 6 L 8 6 z " />
</svg>

<svg height="24" width="24" xmlns="http://www.w3.org/2000/svg"><path style="color:#000;fill:gray;fill-opacity:1" d="M8.787 2c-.677.006-1.25.048-1.76.303-.34.17-.63.462-.797.838C6.064 3.516 6 3.958 6 4.5v15c0 .542.064.984.23 1.36.167.375.458.668.797.837.68.34 1.473.303 2.473.303h5c1 0 1.794.037 2.473-.303.34-.17.63-.462.797-.838.166-.375.23-.817.23-1.359v-15c0-.542-.064-.984-.23-1.36a1.72 1.72 0 0 0-.797-.837C16.293 1.963 15.5 2 14.5 2h-5c-.25 0-.487-.002-.713 0zM7 5h10v14H7V5zm1 1v12h8V6H8z"/></svg>
